X:1
T:Dummy
M:4/4
L:1/4
K:G
Q:1/4=140
|"Gmaj"G B/2B/2 D G/2G/2| "Dmaj"A ^F/2^F/2 D A/2A/2 | "Am7" A C/2C/2 E G/2G/2 |"D7" ^F/2A/2 C ^F/2A/2 |
|"Gmaj"G B/2B/2 D G/2G/2 | "Cmaj"E G/2G/2 C E/2E/2 | "Bm7"D ^F/2^F/2 B D/2D/2 |"Am7"C E/2E/2 A C/2C/2 |
|"Bb"D F/2F/2 _B D/2D/2 | "Em7"E G/2G/2 B E/2E/2 | "Am7"D ^F/2^F/2 A D/2D/2 | "D7"A C/2C/2 ^F/2A/2 |
|"Gmaj"G B/2B/2 D G/2G/2 | "Cmaj"E G/2G/2 C E/2E/2 | "Dmaj"^F/2 A/2 D ^F/2 A/2 |"Gmaj"G2 B2 |
```

OUTPUT
```abc
